X:1
T:Title
%%score 1 2 3 4
L:1/8
Q:1/4=120
M:4/4
K:C
V:1 treble nm="Superius 1"
V:2 treble nm="Contratenor 1"
V:3 treble nm="Tenor 1"
V:4 treble nm="Bassus 1"
V:1
"^Ò" z8 |[M:4/2]"^Bon jour mon cœur""^Pierre de Ronsard" B8 c8 | c8 B8 | z8 d8 | e8 d8 | %5
w: |Bon jour|mon cur|[Bon|jour mon|
 c6 d2 e4"^Andreas Pevernage\n(1542/1543 — 1591)" e4 | d4 e4 f8 | e4 d8 ^c4 | d4 d4 d4 G4 | %9
w: cur,] * * bon|jour ma dou-|ce vi- *|e, [ma dou- ce|
 c4 c4 z4 A4 | A8 z4 d4 | d4 e2 e4 d2 d4 | B4 B4 c4 c4 | B6 G2 c2 d2 e2 c2 | d4 d4 d8 | z8 z4 A4 | %16
w: vi- e] bon|jour, bon|jour ma [dou- ce vi-|e,] Bon jour mon|oeil, [Bon jour * * *|* mon oeil,]|bon|
 B8 ^c4"D" x4- | x4 G4 c4 c4 | z4 A4 A8 | z4 d4 d4 e2"E" x2- | x2 d2 d4 d4 B2 A2 | B6 c2 c2 B2 A4 | %22
w: jour ma dou-|c'a- mi- e,|bon jour,|bon jour ma [dou-|c'a mi- e:] Hé bon|jour ma tou- te bel-|
 B4 z4 z8 | z4 d8"D" x4- | x2 d2 ^c4 d4 A4 | A2 A2 A4 B4 d4 | d2 d2 d4 e4"E" x4- | %27
w: le,|Ma mi-|gnar- di- se, [Ma|mi- gnar- di- se, Ma|mi- gnar- di- se,] bon|
 x4 d4 ^c4 c2"D" x2- | x2 e2 d2 d2 ^c6 d2 | e8 z8 | z16 | z8 z4 B2 B2 | A2 B2 ^c2 d2 e8 | z8 d8 | %34
w: jour Mes de- li-|ces, mon a- mour, *| ||Mes [de-|li- ces, mon a- mour,]|Mon|
 ^c4 c4 d8 | z4 A4 _B4 B4 | A4 A4 ^G6 G2 | A2 c2 B4 c8 | z4 d4 e2 d2 c2 B2 | A2 B2 c2 A2 _B4 A4 | %40
w: doux prin- temps,|[Mon doux prin-|temps,] ma dou- ce|fleur nou- vel- le,|Mon doux * * *|* * * * * plai-|
 G8 z8 | z4 A4 A6 A2 | _B2 B2 A4 A8 | A8 e6 e2 | d2 e2 e4 c4 c4 | c6 c2 c2 B2 A4 | B4 B4 c4 c4 | %47
w: sir,|ma dou- ce|co- lom- bel- le,|[ma dou- ce|co- lom- bel- le,] ma|dou- ce co- lom- bel-|le,] Mon pas- se-|
 c8 z8 | d8 e4 e4 | d6 d2 d4 e4 | z4 d4 d2 c2 d2 d2 | e8 d4 d4 | c4 c4 d2 d2 d4 | d8"F" x8- | %54
w: reau,|ma gen- te|tour- te- rel- le,|ma [gen- te tour- te-|rel- le,] ma|[gen- te tout- te- rel-|le,] Bon|
 x4 e4 d4 ^c4 | d2 d2 e4 A8 | z4 c4 B4 c4 | c4 c8 c4 | z4 A4 A8 | z4 d4 d4 d2 d2 | e8 e8 | z16 | %62
w: jour ma dou-|ce re- bel- le,|[ma dou- ce|re- bel- le,]|Bon jour|ma dou- ce re-|bel- le,||
 z4 d4 d4 d4 | d4 d6 A2 A4 |"D" x16 |] %65
w: Bon jour ma|dou- ce re- bel-||
V:2
"^C" z8 |[M:4/2] G8 A8 | G8 G8 | z8 z4"G" x4- | x4 E4"F" x8- | x8 G8 | z16 | z8 z4 E4 | ^F8 G8 | %9
w: |Bon jour|mon cur,|[Bon|jour mon|cur||bon|jour ma|
 F8 E4"D" x4- | x4 ^C4 D8 | D4 G2 G2 G2 G2 ^F4 | G4 G4 A4 G4 | G6 G2 C8 | z4 G4 ^F4 G4 | G12 E4 | %16
w: dou- ce vi-|* e,|bon [jour ma dou- ce vi-|e,] Bon jour mon|oeil, bon jour,|bon jour ma|dou- c'a-|
 E4 E4 z4 D4 | D4 E4 F4"E" x4- | x4 D8 ^C4 | D8 D4 G2 G2 | G2 G2 ^F4 G4 G2 E2 | G6 A2 G2 G2 ^F4 | %22
w: mi- e, bon|[jour ma dou- c'a-|mi- e,]|bon jour ma *|dou- c'a- mi- e: Hé bon|jour ma tou- te bel-|
 G4 z4 z8 | z8 D8 | F4 E4 G4 F4 | z8 z4 G4 | G2 G2 ^F4 G4"G" x4- | x4 G4 E4 E2"F" x2- | %28
w: le,|Ma|mi- gnar- di- se,|[Ma|mig- nar- di- se,] bon|jour Mes de- li-|
 x2 E2 F2 D2 E8 | z16 | z16 | z8 z4 E4 | E2 E4 A2 ^G2 G2 A4 | z16 | z16 | z4 A4 G4 G4 | %36
w: ces, mon a- mour,|||Mes|[de- li- ces mon a- mour.]|||Mon dous prin-|
 E4 F4 E6 E2 | E2 A2 G4 G8 | z4 G4 G2 F2 E2 DE | F12 F4 | E8 z4 G4 | G4 ^F2 E2 F6 F2 | %42
w: temps, ma dou- ce|fleur nou- vel- le,|Mon doux * * * *|* plai-|sir, ma|dou * * * ce|
 G2 G2 E4 F8 | z4 F4 E6 E2 | F2 E2 E6 C2 E4 | A,8 z4 A,4 | D6 G,2 C8 | z4 G4 A4 G4 | G6 F2 E8 | %49
w: co- lom- bel- le,|ma dou- ce|co- lom be * *|le, Mon|pas- se- reau,|[Mon pas- se-|reau,] * *|
 z4 D4 D4 G4 | F6 E2 D2 E2 D4 | G16 | z16 | z4 G4"A" x8- | x4 G4 G4 E4 | D2 D4 C2 D8 | z16 | z16 | %58
w: ma gen- te,|gen- te tour- te- rel-|le.||Bon jour|ma dou- ce|re- bel- * le,|||
 z4 D4 E4 E4 | ^F4 F2 F2 G8 | G4 G4 G4 A2 A2 | A4 A4 z8 | z4 G4 F6 G2 | A4 G6 ^F2 F4 |"G" x16 |] %65
w: Bon jour ma|dou- ce re- bel-|le, ma [dou- ce re-|bel- le,]|Bon jour ma|dou- ce re- bel-||
V:3
"^C" z8 |[M:4/2][K:treble-8] d8 f8 | e8 d8 | z16 | G8 _B8 | A8 G8 | z16 | z8 z4 A4 | A4 d4 d4 c4 | %9
w: |Bon jour|mon cur||Bon jour|mon cur||bon|jour ma dou- ce|
 c8 c4 A4 | A6 A2 A8 | G8 z8 | z4 d4 f4 e4 | d8 z8 | z4 d4 d8 | e8 d4 c4 | B8 A8 | z4 c4"C" x8- | %18
w: vi- e, ma|[dou- ce vi-|e,|Bon jour mon|oeil,|bon [jour|ma dou- c'a-|mi- e,|bon jour|
 x4 A4 A4 A4 | A8 G8 | z8 z4 d2 ^c2 | d6 f2 e2 d2 d4 | d4 z4 z8 | G4 A2 A2 G4 D2 G2 | A6 A2 d4 d4 | %25
w: ma dou- c'a|mi- e:]|Hé bon|jour ma tou- te bel-|le,|Ma [tou- te bel- le,] Ma|mi- gnar- di- se,|
 z16 | z8 z4"C" x4- | x4 G4 A4 A2"D" x2- | x2 ^c2 d2 _B2 A6 GF | E8 z8 | z16 | z8 z4 B2 B2 | %32
w: |bon|jour mes de- li-|ces, mon a- mour, * *| ||Mes [de-|
 c2 B2 A2 A2 B4 ^c2 c2 | d4 z4 z8 | z4 A4 d2 d2 d4 | z4 d4 d4 d4 | ^c4 d4 B6 B2 | c2 f2 d4 c8 | %38
w: li- ces, mon a- mour,] Mon a-|mour.-|Mon doux prin- temps,|[Mon doux prin-|temps, ma dou- ce|fleur nou- vel- le,|
 z8 z4 c4- | c4 c4 d4"C" x4- | x2 BA G4 z8 | z4 d4 d6 d2 | d2 d2 ^c4 d8 | z4 d4 ^c6 c2 | %44
w: Mon|* doux plai- sir,||ma dou- ce|co- lom- bel- le,|ma [dou- ce|
 d2 c2 B4 c8 | c4 c2 c2 c2 d2 d4 | B4 d4 f4 e4 | c4 c4 c4 c4 | d8 z8 | z8 z4 c4 | %50
w: co- lom- bel- le,]|ma dou- ce co- lom- bel-|le,] Mon pas- se-|reau, [Mon pas- se-|reau,]|ma|
 c2 c2 d4 B2 c4 B2 | c8 z8 | z16 | z16 | z8 z4 A4 | A4 G4 A4 A2 A2 | B4 c2 c2 d4"E" x4- | %57
w: gen- te tout- te- rel- *|le,|||Bon|jour ma dou- ce re-|bel- le, Bon jour ma|
 x4 c4"C" x8- | x4 A4 A2 GF E4 | D4 d4 d6 G2 | G4 G2 G2 c8 | c8 z8 | z8 z4 d4 | %63
w: dou- ce|re- bel * * *|le, Bon [jour ma|dou- ce re- bel-|le,]|Bon|
 d2 A2 _B4 A2 D2 D4 |"D" x16 |] %65
w: jour ma dou- ce re- bel-||
V:4
"^E" z8 |[M:4/2][K:bass] G,8 F,8 | C,8 G,8 | z16 | C,8 _B,,8 | F,,8 C,8 | z16 | z16 | %8
w: |Bon jour|mon cur||Bon jour|mon cur|||
 D,8 G,,4 C,4 | F,,2 G,,2 A,,2 B,,2 C,4 D,4 | A,,8 D,8 | z16 | z4 G,4 F,4 C,4 | G,8 z8 | %14
w: Bon jour ma|dou * * * * ce|vi- e,||Bon jour mon|oeil,|
 z4 G,4 D,4 G,4 | C,2 D,2 E,2 F,2 G,4 A,4 | E,8 A,,4 D,4 | G,,4 C,4 F,,2 G,,2 A,,2 B,,2 | %18
w: bon [jour ma|dou * * * * c'a-|mi- e, bon|jour ma [dou * * *|
 C,4 D,4 A,,8 | D,8 z8 | z8 z4 G,2 A,2 | G,6 F,2 C,2 G,2 D,4 | G,,4 z4 z8 | z8 z4 D,4 | %24
w: * c'a- mi-|e:]|Hé bon|jour ma tou- te bel-|le,|Ma|
 D,2 D,2 A,4 G,4 z4 | z8 z4 G,,4 | G,,2 G,,2 D,4 C,8 | z16 | z8 z4 A,,4 | A,,2 A,,2 E,4 D,4 A,,4 | %30
w: mi- gnar- di- se,|[ma|mi- gnar- di- se,]||ma|mi- gnar- di- se, bon|
 A,8 z8 | z8 z4 E,2 E,2 | A,2 ^G,2 A,2 F,2 E,4 A,,2 A,,2 | D,4 ^C,4 D,4 _B,,4 | A,,8 z8 | %35
w: jour|Mes de-|li- ces, mon a- mour,] [Mes de-|li- ces, mon a-|mour.]|
 D,8 G,4 G,4 | A,4 D,4 E,6 E,2 | A,2 F,2 G,4 C,8 | z16 | F,8 _B,4 F,4 | G,8 z8 | z4 D,4 D,6 D,2 | %42
w: Mon doux prin-|temps, ma dou- ce|fleur nou- vel- le,||Mon doux plai-|sir,|ma dou- ce|
 G,2 G,2 A,4 D,8 | z4 D,4 A,,6 A,,2 | D,2 A,,2 E,4 A,,4 A,,4 | F,,6 F,,2 C,2 G,,2 D,4 | G,,8 z8 | %47
w: co- lom- bel- le,|ma [dou- ce|co- lom- bel- le,] ma|dou- ce co- lom- bel-|le,]|
 C,8 F,4 C,4 | G,8 z8 | z8 z4 C,4 | F,4 D,4 G,2 C,2 G,4 | C,8 z4 G,,4 | C,4 A,,4 D,2 G,,2 D,4 | %53
w: Mon pas- se-|reau,|ma|gen- te tout- te- rel-|le [ma|gen- te tout- te- rel-|
 G,,8 z8 | z16 | z8 z4 D,4 | G,,4 G,6 F,2 E,2 D,2 | C,12 A,,4 | C,4 D,4 A,,8 | D,8 G,8 | %60
w: le]||Bon|jour ma * * *|* dou-|ce re- bel-|le, Bon|
 C,4 C6 B,2 A,2 G,2 | F,12 D,4 | F,4 G,4"B" x8- | x16 |"D" x16 |] %65
w: jour ma * * *|* dou-|ce re- bel-|||

